X: 5
M: C|
L: 1/8
K: Bb
|: (3fga |\
"^>"[b2d2] D>F B>df>b | "^>"[g2B2] E>G B>eg>b |\
"^>"[f2A2] C>E A>ce>f | "^>"[d2F2] B,>D F>Bd>f |
"^>"[b2d2] D>F B>df>b | "^>"[g2B2] E>G B>eg>b |\
"^>"[ac]>gf>=e _e>Ad>c | B2b2 B2 H:|

